X:3187
T:Colepit Laddy. JB.05
M:2/4
L:1/8
Q:240
S:James Biggins MS, Leeds, 1779.
R:Reel
O:England
A:Yorkshire
Z:vmp.Nick Barber & Chris Partington.
K:G
"no key sig in ms"c|(B/c/d/B/) GB|gddc|(B/c/d/B/) GB|cAAc|!(B/c/d/B/) GB
|gddf|gebf|g
ee:|!
|:g|(f/g/a/g/) fd|fddg|(f/g/a/g/) fd|geeg|!(f/g/a/g/) fd|(f/g/a/g/) fd|g
ebf|gee:|]


